X:568
M:C|
L:1/8
K:D
|:f|abaf dfaf|abaf geef|1 abaf dfaf|geag fdd:|2 dfeg fagb|afge fdd||

